X:1
T:Title
%%score ( 1 2 ) { 3 | 4 }
L:1/8
Q:1/4=100
M:4/4
K:Ab
V:1 treble nm="Grand Piano, Soprano"
V:2 treble 
V:3 bass nm="Choir Pad, Jesus Stood on the Shore"
V:4 bass 
V:1
 [CE]>[CA] [Ec]2 [Ec]>[Ec] [Ec]2 | [Fd]>[Ec] [FB]2 [DF]2 [DF]2 | [FA]2 [EG]>[EG] [EG]>[EA] [EB]2 | %3
w: By~Henry~Lake~Gilmour * * * * *|||
 [Ed]2 [Ec]6 | [CE]>[CA] [Ec]2 [Ec]>[Ec] [Ec]2 | [_Ge]2 [Fe]2 [Fd]2 [Fd]2 | %6
w: |||
 [FB]2 [EA]>[EA] [EG]>[EA] [Ac]2 | .G2 z2 z4 | [EA]>[Ac] [Ae]2 [Ae]>[Ae] [Ae]2 | [Ac]2 [Ae]6 | %10
w: ||||
 [Gc]>[GB] [FA]2 [FA]2 [=DA]2 | [=Dc]>[DA] [EB]6 | E>E [Ec]2 [Ec]2 [Ec]2 | %13
w: |||
 [_Ge]>[Ge] [Fe]2 [Fd]2 [Fd]2 | [FB]2 [EA]<[EA] [EG]>[EA] [Ac]2 | .G2 z2 z4 | z8 |] %17
w: ||||
V:2
 x8 | x8 | x8 | x8 | x8 | x8 | x8 | B-[EB] [EA]6 | x8 | x8 | x8 | x8 | x8 | x8 | x8 | %15
 B-[EB] [EA]6- | [EA]2 z2 z4 |] %17
V:3
 A,>A, A,2 A,>A, A,2 | A,>A, A,2 A,2 A,2 | D2 B,>B, B,>C D2 | G,2 A,6 | A,>A, A,2 A,>A, A,2 | %5
 A,2 A,2 A,2 A,2 | D2 C>C B,>C E2 | D2 C6 | C>E C2 C>C C2 | E2 C2 C2 C2 | E>E C2 C2[K:bass] B,2 | %11
 A,>B, G,2 G,>G, G,B, | A,>G, A,2 A,2 A,2 | A,>A, A,2 A,2 A,2 | D2 C<C B,>C E2 | D2 C6- | %16
 C2 z2 z4 |] %17
V:4
 A,,>A,, A,,2 A,,>A,, A,,2 | A,,>A,, D,2 D,2 D,2 | D,2 E,>E, E,>E, E,2 | E,2 A,,6 | %4
 A,,>A,, A,,2 A,,>A,, A,,2 | C,2 D,2 D,2 D,2 | D,2 E,>E, E,>E, E,2 | E,2 A,,6 | %8
 A,>A, A,2 A,>A, A,2 | A,2 A,2 A,2 A,2 | E,>E, F,2 F,2 B,,2 | B,,>B,, E,2 E,>E, E,D, | %12
 C,>B,, A,,2 z4 | C,>C, D,2 D,2 D,2 | D,2 E,<E, E,>E, E,2 | E,2 A,,6- | A,,2 z2 z4 |] %17

